X:1
T: The Leddach Reel
C:
R:Reel
Q: 232
K:D
M:4/4
L:1/8
|:FG|A2 FA d2 fe|dc dB A2 FA|B2 dB AB AF|G2 G2 E2 FG|
A2 FA d2 fe|dc dB A2 FA|BG ge cA Bc|d2 D2 D2 A2|
d2 fd c2 ac|B2 gB A2 FA|B2 dB A2 df|gf ed ce eA|
de fd ce ac|Bd gB AF FA|BG ge cA Bc|d2 D2 D2:|
